X: 10
T:Congress, The
M:C|
L:1/8
Q:200
S:THSP
R:reel
K:Ador
"Am"eAAG A2Bd|eaaf gedg|eAAG A2Ac|"G"AGGF GABd|
"Am"eAAG A2Bd|eaaf gedB|cBcd eged|"G"cABG "Am"A2Bd:||:
"Am"eaag a2ag|eaag "D"egdg|"G"egdg egdg|"Em"eaaf gedg|
"Am"eaag a2ag|eaaf gedB|c2cd eged|"G"cABG "Am"A2Bd:|]
